X: 10
T: 10. Captain Brisbane's Frolic
M: 2/4
L: 1/8
Q: 1/4=130
K: F
A/B/ | cA/B/ cf/a/ | B3 A/B/ | cc/B/ AA/G/ | AF FA/B/ |  cA/B/ cf/a/ | B3 A/B/ | cc {d/}cB/A/ | A2 A :|!
|: BGG e/f/| g[ec] [ec] z | c[AF][AF] f/g/ | a[fA][fA] | dbca | BgAf |c/B/A/B/ c/B/A/G/ | FAF :|!

